dist/assets/img/categoria-mobile.svg

<?xml version="1.0" encoding="UTF-8" standalone="no"?>
<svg width="22px" height="33px" viewBox="0 0 22 33" version="1.1" xmlns="http://www.w3.org/2000/svg" xmlns:xlink="http://www.w3.org/1999/xlink" xmlns:sketch="http://www.bohemiancoding.com/sketch/ns">
    <!-- Generator: sketchtool 3.4.4 (395) - http://www.bohemiancoding.com/sketch -->
    <title>mobile</title>
    <desc>Created with sketchtool.</desc>
    <defs></defs>
    <g id="Page-1" stroke="none" stroke-width="1" fill="none" fill-rule="evenodd" sketch:type="MSPage">
        <g id="Desktop-HD" sketch:type="MSArtboardGroup" transform="translate(-148.000000, -497.000000)" fill-opacity="0.6" fill="#FFFFFF">
            <g id="Page-1" sketch:type="MSLayerGroup" transform="translate(148.000000, 497.000000)">
                <g id="Group-7" sketch:type="MSShapeGroup">
                    <path d="M17.6121633,29.5838716 L3.60443081,29.5838716 C3.22020969,29.5838716 2.94238112,29.2803299 2.94238112,28.8228043 L2.94238112,23.3138716 L18.2740581,23.3138716 L18.2740581,28.8228043 C18.2740581,29.2803299 17.9963844,29.5838716 17.6121633,29.5838716 L17.6121633,29.5838716 Z M3.60443081,2.94244306 L17.6121633,2.94244306 C17.9963844,2.94244306 18.2740581,3.23183004 18.2740581,3.59591174 L18.2740581,20.9924423 L2.94238112,20.9924423 L2.94238112,3.59591174 C2.94238112,3.23183004 3.22020969,2.94244306 3.60443081,2.94244306 L3.60443081,2.94244306 Z M21.2165012,3.63933747 C21.2165012,1.62933913 19.5871621,0 17.5771637,0 L3.63927553,0 C1.62943205,0 -6.19461698e-05,1.62933913 -6.19461698e-05,3.63933747 L-6.19461698e-05,28.8824017 C-6.19461698e-05,30.8924 1.62943205,32.5217391 3.63927553,32.5217391 L17.5771637,32.5217391 C19.5871621,32.5217391 21.2165012,30.8924 21.2165012,28.8824017 L21.2165012,3.63933747 Z M10.8374381,25 L10.6624381,25 C9.74421305,25 8.99993805,25.7834474 8.99993805,26.75 C8.99993805,27.7165526 9.74421305,28.5 10.6624381,28.5 L10.8374381,28.5 C11.7556631,28.5 12.4999381,27.7165526 12.4999381,26.75 C12.4999381,25.7834474 11.7556631,25 10.8374381,25" id="mobile"></path>
                </g>
            </g>
        </g>
    </g>
</svg>

<svg width="22" height="33" viewBox="0 0 22 33" xmlns="http://www.w3.org/2000/svg"><title>mobile</title><g id="Page-1" fill="none" fill-rule="evenodd"><g id="Desktop-HD" fill-opacity=".6" fill="#FFF"><g id="Page-1"><g id="Group-7"><path d="M17.612 29.584H3.604c-.384 0-.662-.304-.662-.761v-5.51h15.332v5.51c0 .457-.278.76-.662.76zM3.604 2.942h14.008c.384 0 .662.29.662.654v17.396H2.942V3.596c0-.364.278-.654.662-.654zm17.613.697A3.64 3.64 0 0 0 17.577 0H3.64A3.64 3.64 0 0 0 0 3.64v25.242a3.64 3.64 0 0 0 3.64 3.64h13.938a3.64 3.64 0 0 0 3.64-3.64V3.64zM10.837 25h-.175C9.744 25 9 25.783 9 26.75s.744 1.75 1.662 1.75h.175c.919 0 1.663-.783 1.663-1.75S11.756 25 10.837 25" id="mobile"/></g></g></g></g></svg>
